src/portfolio.svg

<?xml version="1.0" encoding="UTF-8" standalone="no"?>
<svg width="20px" height="20px" viewBox="0 0 20 20" version="1.1" xmlns="http://www.w3.org/2000/svg" xmlns:xlink="http://www.w3.org/1999/xlink">
    <!-- Generator: Sketch 3.7.2 (28276) - http://www.bohemiancoding.com/sketch -->
    <title>portfolio</title>
    <desc>Created with Sketch.</desc>
    <defs></defs>
    <g id="Page-1" stroke="none" stroke-width="1" fill="none" fill-rule="evenodd">
        <g id="portfolio" fill="#000000">
            <path d="M9,12 L1,12 L1,18.0018986 C1,19.1132936 1.8932319,20 2.99508929,20 L17.0049107,20 C18.1073772,20 19,19.1054196 19,18.0018986 L19,12 L11,12 L11,14 L9,14 L9,12 Z M9,11 L0,11 L0,4.99810135 C0,3.89458045 0.898212381,3 1.99079514,3 L6,3 L6,2 C6,0.8954305 6.88670635,0 7.99810135,0 L12.0018986,0 C13.1054196,0 14,0.887729645 14,2 L14,3 L18.0092049,3 C19.1086907,3 20,3.88670635 20,4.99810135 L20,11 L11,11 L11,9 L9,9 L9,11 Z M12,3 L12,2 L8,2 L8,3 L12,3 Z" id="Combined-Shape"></path>
        </g>
    </g>
</svg>

<svg xmlns="http://www.w3.org/2000/svg" viewBox="0 0 20 20"><path d="M9 12H1v6a2 2 0 0 0 2 2h14a2 2 0 0 0 2-2v-6h-8v2H9v-2zm0-1H0V5c0-1.1.9-2 2-2h4V2a2 2 0 0 1 2-2h4a2 2 0 0 1 2 2v1h4c1.1 0 2 .89 2 2v6h-9V9H9v2zm3-8V2H8v1h4z"/></svg>
